!!!COM:	de Orto, Marbrianus
!!!CDT:	~1460///-1529//
!!!OTL:	Dulces exuvie
!!!AGN:	Song; Chanson
!!!SCT:	Ort3002
!!!SCA:	Ort3002
!!!voices:	4
**kern	**text	**kern	**text	**kern	**text	**kern	**text
*staff4	*staff4	*staff3	*staff3	*staff2	*staff2	*staff1	*staff1
*Ivox	*	*Ivox	*	*Ivox	*	*Ivox	*
*I"Bassus	*	*I"Tenor	*	*I"Altus	*	*I"Superius	*
*I'B	*	*I'T	*	*I'A	*	*I'S	*
*clefF4	*	*clefGv2	*	*clefGv2	*	*clefG2	*
*k[]	*	*k[]	*	*k[]	*	*k[]	*
*M2/1	*	*M2/1	*	*M2/1	*	*M2/1	*
*met(C|)	*	*met(C|)	*	*met(C|)	*	*met(C|)	*
=1-	=1-	=1-	=1-	=1-	=1-	=1-	=1-
[0E	Dul-	0r	.	0r	.	0r	.
=2	=2	=2	=2	=2	=2	=2	=2
0E]	.	[0B	Dul-	0r	.	0r	.
=3	=3	=3	=3	=3	=3	=3	=3
0BB	-ces	0B]	.	0r	.	0r	.
=4	=4	=4	=4	=4	=4	=4	=4
1.C	ex-	0E	-ces	0r	.	0r	.
2BB/	.	.	.	.	.	.	.
=5	=5	=5	=5	=5	=5	=5	=5
1AA	-u-	0c	ex-	0r	.	0r	.
1F	-vi-	.	.	.	.	.	.
=6	=6	=6	=6	=6	=6	=6	=6
2D\	.	1B	-u-	0r	.	0r	.
2E\	.	.	.	.	.	.	.
1F	.	1A	-vi-	.	.	.	.
=7	=7	=7	=7	=7	=7	=7	=7
0E	-e	2c\	.	[0e	Dul-	0r	.
.	.	2B\	.	.	.	.	.
.	.	1B	-e	.	.	.	.
=8	=8	=8	=8	=8	=8	=8	=8
0r	.	0r	.	0e]	.	0b	Dul-
=9	=9	=9	=9	=9	=9	=9	=9
0r	.	0r	.	0A	-ces	0cc	-ces
=10	=10	=10	=10	=10	=10	=10	=10
0r	.	0r	.	0f	ex-	1.cc	ex-
.	.	.	.	.	.	4b\	.
.	.	.	.	.	.	4a/	.
=11	=11	=11	=11	=11	=11	=11	=11
0r	.	0r	.	1.f	-u-	1a	-u-
.	.	.	.	.	.	[1cc	-vi-
.	.	.	.	2e\	.	.	.
=12	=12	=12	=12	=12	=12	=12	=12
0r	.	0r	.	1e	-vi-	2cc\]	.
.	.	.	.	.	.	4b\	.
.	.	.	.	.	.	4cc\	.
.	.	.	.	1d	.	2b\	.
.	.	.	.	.	.	[2a/	.
=13	=13	=13	=13	=13	=13	=13	=13
0r	.	0r	.	2f\	.	2a/]	.
.	.	.	.	2e\	.	2cc\	.
.	.	.	.	1g	.	2b\	.
.	.	.	.	.	.	4a/	.
.	.	.	.	.	.	4g/	.
=14	=14	=14	=14	=14	=14	=14	=14
0r	.	0r	.	2f\	.	2a/	.
.	.	.	.	1e	.	2g/	.
.	.	.	.	.	.	1f	.
.	.	.	.	2d\	.	.	.
=15	=15	=15	=15	=15	=15	=15	=15
[0C	dum	1.c	dum	1e	-e	0e	-e
.	.	.	.	1r	.	.	.
.	.	2B\	.	.	.	.	.
=16	=16	=16	=16	=16	=16	=16	=16
1C]	.	2A/	.	1E	dum	0r	.
.	.	2G/	.	.	.	.	.
1BB	.	1d	fa-	1F	.	.	.
=17	=17	=17	=17	=17	=17	=17	=17
0GG	fa-	1D	-ta	1G	fa-	1b	dum
.	.	2r	.	1D	-ta	1dd	.
.	.	[2G/	de-	.	.	.	.
=18	=18	=18	=18	=18	=18	=18	=18
0AA	.	2G/]	.	0r	.	0cc	fa-
.	.	4F#i/	.	.	.	.	.
.	.	4E/	.	.	.	.	.
.	.	1F#i	.	.	.	.	.
=19	=19	=19	=19	=19	=19	=19	=19
0GG	-ta	0G	-us-	0d	de-	0b	-ta
=20	=20	=20	=20	=20	=20	=20	=20
1r	.	1A	-que	1c	-us-	1e	de-
[1BB-	de-	1D	.	[1d	-que	[1f	-us-
=21	=21	=21	=21	=21	=21	=21	=21
1BB-]	.	1B-	si-	0d]	.	0f]	.
1D	-us-	1A	-ne-	.	.	.	.
=22	=22	=22	=22	=22	=22	=22	=22
1C	-que	1c	.	1G	.	1e	-que
1GG	si-	1Bn	-bant,	2.d\	si-	1g	si-
.	.	.	.	4c\	.	.	.
=23	=23	=23	=23	=23	=23	=23	=23
0D	-ne-	1r	.	1A	.	0f	-ne-
.	.	1F	ac-	4c\	-ne-	.	.
.	.	.	.	4B\	.	.	.
.	.	.	.	4B\	.	.	.
.	.	.	.	4A/	.	.	.
=24	=24	=24	=24	=24	=24	=24	=24
0C	-bant,	2G/	-ci-	1c	-bant,	0e	-bant,
.	.	2A/	-pi-	.	.	.	.
.	.	2G/	-te	[1e	.	.	.
.	.	2E/	.	.	.	.	.
=25	=25	=25	=25	=25	=25	=25	=25
0r	.	1E	hanc	2e\]	.	0g	ac-
.	.	.	.	4d\	.	.	.
.	.	.	.	4c\	.	.	.
.	.	2r	.	1e	.	.	.
.	.	2C/	a-	.	.	.	.
=26	=26	=26	=26	=26	=26	=26	=26
1r	.	4D/	.	2r	.	1f	-ci-
.	.	4E/	.	.	.	.	.
.	.	4F/	.	4A/	ac-	.	.
.	.	4G/	.	4B\	.	.	.
2r	.	2A/	-ni-	4c\	.	2e/	-pi-
.	.	.	.	4d\	.	.	.
2C/	ac-	2E/	-mam,	2e\	.	2g/	.
=27	=27	=27	=27	=27	=27	=27	=27
2D\	-ci-	0r	.	2d\	-ci-	2f/	-te
2C/	-pi-	.	.	2.g\	-pi-	1e	hanc
1E	-te	.	.	.	.	.	.
.	.	.	.	4f\	.	.	.
.	.	.	.	2e\	-te	2g/	.
=28	=28	=28	=28	=28	=28	=28	=28
2r	.	0r	.	2d\	hanc	4f/	a-
.	.	.	.	.	.	4e/	.
2E\	hanc	.	.	1c	a-	4d/	.
.	.	.	.	.	.	4c/	.
2F\	a-	.	.	.	.	1d	-ni-
2G\	.	.	.	2B\	-ni-	.	.
=29	=29	=29	=29	=29	=29	=29	=29
2A\	-ni-	0e	me-	0c	-mam,	1c	-mam,
2AA/	.	.	.	.	.	.	.
1AA	-mam,	.	.	.	.	1r	.
=30	=30	=30	=30	=30	=30	=30	=30
1A	me-	1e	-que	0r	.	1cc	me-
2G\	-que	1e	hi-	.	.	1b	-que
2E\	hi-	.	.	.	.	.	.
=31	=31	=31	=31	=31	=31	=31	=31
2.G\	-is	1d	-is	0r	.	1b	hi-
4D\	.	.	.	.	.	.	.
2F\	.	2c\	ex	.	.	2a/	-is
2E\	ex	2e\	sol-	.	.	2g/	.
=32	=32	=32	=32	=32	=32	=32	=32
1F	sol-	2d\	-vi-	0r	.	2r	.
.	.	1c	.	.	.	2a/	ex
2E\	-vi-	.	.	.	.	2g/	sol-
2AA/	-te	2e\	.	.	.	2cc\	.
=33	=33	=33	=33	=33	=33	=33	=33
2r	.	4d\	.	0e	me-	2b\	-vi-
.	.	4c\	.	.	.	.	.
2AA/	cu-	4B\	.	.	.	1a	.
.	.	4A/	.	.	.	.	.
1E	.	1B	.	.	.	.	.
.	.	.	.	.	.	2g#i/	.
=34	=34	=34	=34	=34	=34	=34	=34
1F	.	1A	-te	1c	-que	1a	-te
1D	-ris.	1d	.	1f	hi-	1a	cu-
=35	=35	=35	=35	=35	=35	=35	=35
0r	.	4d\	.	1f	-is	1.dd	.
.	.	4c\	.	.	.	.	.
.	.	4B\	.	.	.	.	.
.	.	4A/	.	.	.	.	.
.	.	1G	.	[1g	ex	.	.
.	.	.	.	.	.	2cc\	.
=36	=36	=36	=36	=36	=36	=36	=36
0r	.	1r	.	2g\]	.	2b\	.
.	.	.	.	2f\	.	2a/	.
.	.	2C/	cu-	2e\	sol-	2g/	.
.	.	2D/	.	2d\	.	2f/	.
=37	=37	=37	=37	=37	=37	=37	=37
0r	.	2E/	.	2c\	-vi-	2e/	.
.	.	2F/	.	4B\	.	2d/	.
.	.	.	.	4A/	.	.	.
.	.	2G/	.	2B\	.	2g/	.
.	.	2A/	.	[2c\	-te	[2f/	.
=38	=38	=38	=38	=38	=38	=38	=38
0r	.	1E	.	4c\]	.	4f/]	.
.	.	.	.	4B\	.	4e/	.
.	.	.	.	1B	cu-	1e	.
.	.	1F	.	.	.	.	.
.	.	.	.	2A/	.	2d/	.
=39	=39	=39	=39	=39	=39	=39	=39
1r	.	0E	-ris.	2c\	.	0e	-ris.
.	.	.	.	1B	.	.	.
1E	Vi-	.	.	.	.	.	.
.	.	.	.	2e\	.	.	.
=40	=40	=40	=40	=40	=40	=40	=40
1F	-xi	0r	.	2d\	.	[0a	Vi-
.	.	.	.	2c\	.	.	.
2.F\	et,	.	.	2d\	.	.	.
.	.	.	.	[2f\	.	.	.
4E\	.	.	.	.	.	.	.
=41	=41	=41	=41	=41	=41	=41	=41
2D\	que	2r	.	4f\]	.	0a]	.
.	.	.	.	4e\	.	.	.
2C/	de-	1c	Vi-	1e	.	.	.
1F	-de-	.	.	.	.	.	.
.	.	2A/	.	2d\	.	.	.
=42	=42	=42	=42	=42	=42	=42	=42
0E	-rat	2B\	.	0e	-ris.	0g	-xi
.	.	2E/	.	.	.	.	.
.	.	1B	.	.	.	.	.
=43	=43	=43	=43	=43	=43	=43	=43
2AA/	cur-	2.c\	-xi	1e	Vi-	0r	.
2E\	.	.	.	.	.	.	.
.	.	4B\	.	.	.	.	.
4F\	.	4A/	.	2c\	.	.	.
4E\	.	4G/	.	.	.	.	.
4D\	.	4F/	.	[2d\	.	.	.
4C/	.	4E/	.	.	.	.	.
=44	=44	=44	=44	=44	=44	=44	=44
2BB/	.	1G	.	2d\]	.	0r	.
1E	.	.	.	2B\	.	.	.
.	.	1F	.	2A/	.	.	.
2D\	.	.	.	2d\	.	.	.
=45	=45	=45	=45	=45	=45	=45	=45
2E\	.	1r	.	2c\	.	0r	.
2BB/	.	.	.	1B	.	.	.
1C	.	1E	et,	.	.	.	.
.	.	.	.	2A/	.	.	.
=46	=46	=46	=46	=46	=46	=46	=46
1BB	-sum	1D	que	0B	-xi	0dd	et,
1GG	for-	2G/	.	.	.	.	.
.	.	2G/	de-	.	.	.	.
=47	=47	=47	=47	=47	=47	=47	=47
0AA	-tu-	1E	-de-	0r	.	1cc	que
.	.	1F	-rat	.	.	2cc\	de-
.	.	.	.	.	.	2cc\	-de-
=48	=48	=48	=48	=48	=48	=48	=48
1GG	.	1G	cur-	1d	et,	1b	-rat
1AA	.	1E	.	2c\	que	1a	cur-
.	.	.	.	[2A/	.	.	.
=49	=49	=49	=49	=49	=49	=49	=49
0BB	.	1D	-sum	2A/]	.	0dd	-sum
.	.	.	.	4G/	.	.	.
.	.	.	.	4F/	.	.	.
.	.	2r	.	2G/	de-	.	.
.	.	2G/	for-	2G/	-de-	.	.
=50	=50	=50	=50	=50	=50	=50	=50
1AA	-na,	1c	-tu-	0E	-rat	1r	.
1r	.	1B	-na,	.	.	1g	for-
=51	=51	=51	=51	=51	=51	=51	=51
2.FF/	pe-	1r	.	1F	cur-	0cc	-tu-
4GG/	.	.	.	.	.	.	.
4AA/	.	[1e	pe-	1E	.	.	.
4BB/	.	.	.	.	.	.	.
4C/	.	.	.	.	.	.	.
4D\	.	.	.	.	.	.	.
=52	=52	=52	=52	=52	=52	=52	=52
1E	.	1e]	.	1E	-sum	1b	.
1F	.	1c	.	2r	.	[1a	-na,
.	.	.	.	[2F/	for-	.	.
=53	=53	=53	=53	=53	=53	=53	=53
1D	.	1d	-re-	4F/]	.	1a]	.
.	.	.	.	4G/	.	.	.
.	.	.	.	4A/	.	.	.
.	.	.	.	4B\	.	.	.
1E	.	1G	.	4c\	-tu-	1g	pe-
.	.	.	.	2d\	.	.	.
.	.	.	.	4c#i\	.	.	.
=54	=54	=54	=54	=54	=54	=54	=54
0D	-re-	0A	.	1d	-na,	1.f#	-re-
.	.	.	.	1d	pe-	.	.
.	.	.	.	.	.	4e/	.
.	.	.	.	.	.	4f#i/	.
=55	=55	=55	=55	=55	=55	=55	=55
0GG	-gi,	0G	.	0B	-re-	1g	-gi,
.	.	.	.	.	.	1r	.
=56	=56	=56	=56	=56	=56	=56	=56
0AA	et	0E	-gi,	1.A	-gi,	[0c#	et
.	.	.	.	4G/	.	.	.
.	.	.	.	4F/	.	.	.
=57	=57	=57	=57	=57	=57	=57	=57
0AA	nunc	0A	et	1E	.	0c#]	.
.	.	.	.	1c#i	.	.	.
=58	=58	=58	=58	=58	=58	=58	=58
1.BB-	ma-	2D/	nunc	1.d	.	[0f	nunc
.	.	2E/	.	.	.	.	.
.	.	2F/	.	.	.	.	.
4AA/	.	2G/	.	4c\	.	.	.
4GG/	.	.	.	4B\	.	.	.
=59	=59	=59	=59	=59	=59	=59	=59
1FF	.	1A	ma-	1c	.	1f]	.
1GG	-gna	1B	.	[1G	et	1d	.
=60	=60	=60	=60	=60	=60	=60	=60
0r	.	1c	.	2G/]	.	1.g	ma-
.	.	.	.	2E/	.	.	.
.	.	2B\	-gna	1E	nunc	.	.
.	.	[2c\	me-	.	.	4f/	.
.	.	.	.	.	.	4e/	.
=61	=61	=61	=61	=61	=61	=61	=61
0r	.	2c\]	.	1e	ma-	1g	.
.	.	2C/	.	.	.	.	.
.	.	2D/	.	2d\	.	1f	.
.	.	[2A/	.	[2c\	-gna	.	.
=62	=62	=62	=62	=62	=62	=62	=62
0r	.	2A/]	.	2c\]	.	2e/	-gna
.	.	2G/	.	1B	me-	1e	me-
.	.	1F	.	.	.	.	.
.	.	.	.	2A/	.	2d/	.
=63	=63	=63	=63	=63	=63	=63	=63
0C	me-	2E/	.	[0c	.	1e	-i
.	.	1A	.	.	.	.	.
.	.	.	.	.	.	1r	.
.	.	[2G/	.	.	.	.	.
=64	=64	=64	=64	=64	=64	=64	=64
1.C	-i	2G/]	.	1c]	.	0r	.
.	.	1E	.	.	.	.	.
.	.	.	.	1G	-i	.	.
4BB/	.	4D/	.	.	.	.	.
4AA/	.	4C/	.	.	.	.	.
=65	=65	=65	=65	=65	=65	=65	=65
0GG	.	2E/	.	2r	.	[0b	sub
.	.	2D/	-i	1g	sub	.	.
.	.	[1d	sub	.	.	.	.
.	.	.	.	4f\	.	.	.
.	.	.	.	4e\	.	.	.
=66	=66	=66	=66	=66	=66	=66	=66
0G	sub	1d]	.	1d	.	0b]	.
.	.	1B	.	1d	ter-	.	.
=67	=67	=67	=67	=67	=67	=67	=67
1F	.	0A	ter-	2f\	.	1.cc	ter-
.	.	.	.	1e	.	.	.
1F	ter-	.	.	.	.	.	.
.	.	.	.	2d\	.	4b\	.
.	.	.	.	.	.	4a/	.
=68	=68	=68	=68	=68	=68	=68	=68
0E	-ras	0B	.	[0e	-ras	0g#	-ras
=69	=69	=69	=69	=69	=69	=69	=69
2.C/	i-	1E	-ras	1e]	.	1r	.
4BB/	.	.	.	.	.	.	.
2AA/	.	2.E/	i-	1e	ter-	1cc	i-
2C/	.	.	.	.	.	.	.
.	.	4F/	.	.	.	.	.
=70	=70	=70	=70	=70	=70	=70	=70
2GG/	-bit	2G/	.	2d\	.	2b\	.
2AA/	.	1E	.	2c\	.	2a/	.
1E	i-	.	.	1B	.	1g	-bit
.	.	2B\	.	.	.	.	.
=71	=71	=71	=71	=71	=71	=71	=71
2AA/	-ma-	2c\	.	1e	-ras	2a/	i-
1E	.	4B\	.	.	.	2cc\	.
.	.	4A/	.	.	.	.	.
.	.	2G/	.	2r	.	2b\	.
2F\	.	2A/	.	2d\	i-	2a/	.
=72	=72	=72	=72	=72	=72	=72	=72
2E\	.	1B	-bit	2e\	-bit	2g/	-ma-
2D\	.	.	.	2B\	.	2.dd\	.
1F	.	2r	.	2A/	.	.	.
.	.	.	.	.	.	4cc\	.
.	.	2D/	i-	2d\	i-	4b\	.
.	.	.	.	.	.	4a/	.
=73	=73	=73	=73	=73	=73	=73	=73
2E\	.	2E/	-ma-	2B\	-ma-	2g/	.
2AA/	.	2F/	.	2A/	.	2cc\	.
2GG/	.	2G/	.	2d\	.	2b\	.
2AA/	.	2E/	.	[2c\	.	2a/	.
=74	=74	=74	=74	=74	=74	=74	=74
2E\	.	2c\	.	2c\]	.	2g/	.
2D\	.	2d\	.	2f\	.	2.a/	.
1E	.	1B	.	1e	.	.	.
.	.	.	.	.	.	4g#i/	.
.	.	.	.	.	.	4g#i/	.
.	.	.	.	.	.	4f#i/	.
=75	=75	=75	=75	=75	=75	=75	=75
0AAl	-go.	0Al	-go.	2.f\	.	0al	-go.
.	.	.	.	4e\	.	.	.
.	.	.	.	1el	-go.	.	.
==	==	==	==	==	==	==	==
*-	*-	*-	*-	*-	*-	*-	*-
!!!RDF**kern: l=long note in original notation
!!!RDF**kern: i=editorial accidental
!!!ENC:	Jesse Rodin 8/6/2013
!!!END:	2013/08/06/
!!!EED:	Jesse Rodin
!!!EEV:	2013/08/06/
!!!ONB:	Translated from MusicXML and edited on 2013/08/06/ by Craig Sapp
!!muse2ps: C^@{COM}^i2I150v85,85,85,130Q16
